icons/robot.svg

<svg width="24" height="24" viewBox="0 0 24 24" fill="none" xmlns="http://www.w3.org/2000/svg">
<path fill-rule="evenodd" clip-rule="evenodd" d="M12 1C12.5523 1 13 1.44772 13 2V4.05493C17.5 4.55237 21 8.36745 21 13V21C21 21.5523 20.5523 22 20 22H4C3.44772 22 3 21.5523 3 21V13C3 8.36745 6.50005 4.55237 11 4.05493V2C11 1.44772 11.4477 1 12 1ZM12 6C8.13401 6 5 9.13401 5 13V20H19V13C19 9.13401 15.866 6 12 6ZM12 10C10.3431 10 9 11.3431 9 13C9 14.6569 10.3431 16 12 16C13.6569 16 15 14.6569 15 13C15 11.3431 13.6569 10 12 10ZM7 13C7 10.2386 9.23858 8 12 8C14.7614 8 17 10.2386 17 13C17 15.7614 14.7614 18 12 18C9.23858 18 7 15.7614 7 13ZM11 13C11 12.4477 11.4477 12 12 12H12.01C12.5623 12 13.01 12.4477 13.01 13C13.01 13.5523 12.5623 14 12.01 14H12C11.4477 14 11 13.5523 11 13Z" fill="black"/>
</svg>

<svg
  width="24"
  height="24"
  viewBox="0 0 24 24"
  xmlns="http://www.w3.org/2000/svg"
>
  <path
    fill-rule="evenodd"
    clip-rule="evenodd"
    d="M12 1a1 1 0 0 1 1 1v2.055c4.5.497 8 4.312 8 8.945v8a1 1 0 0 1-1 1H4a1 1 0 0 1-1-1v-8c0-4.633 3.5-8.448 8-8.945V2a1 1 0 0 1 1-1zm0 5a7 7 0 0 0-7 7v7h14v-7a7 7 0 0 0-7-7zm0 4a3 3 0 1 0 0 6 3 3 0 0 0 0-6zm-5 3a5 5 0 1 1 10 0 5 5 0 0 1-10 0zm4 0a1 1 0 0 1 1-1h.01a1 1 0 1 1 0 2H12a1 1 0 0 1-1-1z"
  />
</svg>
